packages/ffe-icons/icons/open/300/sm/local_laundry_service.svg

<svg xmlns="http://www.w3.org/2000/svg" height="20" viewBox="0 -960 960 960" width="20"><path d="M276.025-116.001q-26.639 0-45.331-18.843-18.693-18.842-18.693-45.465v-599.382q0-26.623 18.854-45.465 18.855-18.843 45.494-18.843h407.626q26.639 0 45.331 18.843 18.693 18.842 18.693 45.465v599.382q0 26.623-18.854 45.465-18.855 18.843-45.494 18.843H276.025Zm.284-51.999h407.382q4.616 0 8.463-3.846 3.846-3.847 3.846-8.463v-599.382q0-4.616-3.846-8.463-3.847-3.846-8.463-3.846H276.309q-4.616 0-8.463 3.846-3.846 3.847-3.846 8.463v599.382q0 4.616 3.846 8.463 3.847 3.846 8.463 3.846Zm203.889-87.386q63.263 0 107.84-44.774 44.576-44.775 44.576-108.038t-44.774-107.84q-44.775-44.576-108.038-44.576t-107.84 44.774q-44.576 44.775-44.576 108.038t44.774 107.84q44.775 44.576 108.038 44.576ZM479.924-312q-18.924 0-36.386-7.192-17.462-7.193-30.769-20.808L548-475.231q13.615 13.387 20.808 30.954Q576-426.711 576-407.866 576-368 547.978-340t-68.054 28ZM347.789-672Q363-672 373.5-682.289q10.5-10.29 10.5-25.5Q384-723 373.711-733.5q-10.29-10.5-25.5-10.5Q333-744 322.5-733.711q-10.5 10.29-10.5 25.5Q312-693 322.289-682.5q10.29 10.5 25.5 10.5Zm120 0Q483-672 493.5-682.289q10.5-10.29 10.5-25.5Q504-723 493.711-733.5q-10.29-10.5-25.5-10.5Q453-744 442.5-733.711q-10.5 10.29-10.5 25.5Q432-693 442.289-682.5q10.29 10.5 25.5 10.5ZM264-168V-792-168Z"/></svg>

<svg xmlns="http://www.w3.org/2000/svg" height="20" viewBox="0 -960 960 960" width="20"><path d="M276.03-116q-26.64 0-45.34-18.84Q212-153.69 212-180.31v-599.38q0-26.62 18.86-45.47Q249.71-844 276.35-844h407.62q26.64 0 45.34 18.84Q748-806.31 748-779.69v599.38q0 26.62-18.86 45.47Q710.29-116 683.65-116H276.03Zm.28-52h407.38q4.62 0 8.46-3.85 3.85-3.84 3.85-8.46v-599.38q0-4.62-3.85-8.46-3.84-3.85-8.46-3.85H276.31q-4.62 0-8.46 3.85-3.85 3.84-3.85 8.46v599.38q0 4.62 3.85 8.46 3.84 3.85 8.46 3.85Zm203.89-87.39q63.26 0 107.84-44.77 44.57-44.77 44.57-108.04 0-63.26-44.77-107.84-44.77-44.57-108.04-44.57-63.26 0-107.84 44.77-44.57 44.77-44.57 108.04 0 63.26 44.77 107.84 44.77 44.57 108.04 44.57Zm-.28-56.61q-18.92 0-36.38-7.19T412.77-340L548-475.23q13.62 13.39 20.81 30.95 7.19 17.57 7.19 36.41Q576-368 547.98-340q-28.02 28-68.06 28ZM347.79-672q15.21 0 25.71-10.29t10.5-25.5q0-15.21-10.29-25.71t-25.5-10.5q-15.21 0-25.71 10.29t-10.5 25.5q0 15.21 10.29 25.71t25.5 10.5Zm120 0q15.21 0 25.71-10.29t10.5-25.5q0-15.21-10.29-25.71t-25.5-10.5q-15.21 0-25.71 10.29t-10.5 25.5q0 15.21 10.29 25.71t25.5 10.5ZM264-168v-624 624Z"/></svg>
